src/images/svg/mfsa.svg

<?xml version="1.0" encoding="UTF-8"?>
<svg xmlns="http://www.w3.org/2000/svg" width="154" height="102" viewBox="0 0 154 102" role="img">
    <title id='mfsa-icon'>MFSA</title>
    <g fill="none" fill-rule="evenodd">
        <path d="M0 0h154v102H0z" />
        <g id="4-illustration/regulatory/mfsa">
            <path
                d="M43.9495413,46.4709141 L43.8233945,46.4709141 L41.6788991,50.7091413 L35.9602446,60.9722992 L30.367737,50.7506925 L28.1391437,46.1800554 L28.0129969,46.1800554 L28.0129969,65.501385 L22,65.501385 L22,36.498615 L28.7698777,36.498615 L35.9602446,50.0858726 L36.0443425,50.0858726 L43.1506116,36.498615 L49.9625382,36.498615 L49.9625382,65.501385 L43.9495413,65.501385 L43.9495413,46.4709141 Z M56.4380734,65.501385 L56.4380734,36.498615 L75.9067278,36.498615 L75.9067278,42.1080332 L62.8295107,42.1080332 L62.8295107,48.0498615 L73.9724771,48.0498615 L73.9724771,53.6177285 L62.8295107,53.6177285 L62.8295107,65.501385 L56.4380734,65.501385 Z M90.5397554,66 C87.9607414,66 85.774219,65.5637163 83.9801223,64.6911357 C82.1860257,63.8185552 80.6582632,62.6897576 79.396789,61.3047091 L83.601682,57.1080332 C85.5920079,59.3241108 88.0448376,60.432133 90.9602446,60.432133 C92.5300792,60.432133 93.6934213,60.1135766 94.4503058,59.4764543 C95.2071903,58.839332 95.5856269,57.9944651 95.5856269,56.9418283 C95.5856269,56.1385001 95.3613682,55.4667617 94.912844,54.9265928 C94.4643199,54.3864239 93.5532688,54.0193916 92.1796636,53.8254848 L89.2782875,53.4515235 C86.1666511,53.06371 83.8890235,52.1357414 82.4453364,50.66759 C81.0016493,49.1994386 80.2798165,47.2465496 80.2798165,44.8088643 C80.2798165,43.5069187 80.5321076,42.3157949 81.0366972,41.2354571 C81.5412869,40.1551193 82.2631197,39.2271507 83.2022171,38.4515235 C84.1413146,37.6758964 85.2906405,37.0734093 86.6502294,36.6440443 C88.0098182,36.2146793 89.558605,36 91.2966361,36 C93.5112241,36 95.4594717,36.3462569 97.1414373,37.0387812 C98.8234029,37.7313054 100.267068,38.7423756 101.472477,40.0720222 L97.2255352,44.3102493 C96.5247162,43.5069212 95.6767379,42.849033 94.6815749,42.3365651 C93.6864119,41.8240972 92.4319648,41.567867 90.9181957,41.567867 C89.488525,41.567867 88.4232961,41.817172 87.7224771,42.3157895 C87.0216581,42.8144069 86.6712538,43.5069208 86.6712538,44.3933518 C86.6712538,45.3905867 86.9445691,46.1108011 87.491208,46.5540166 C88.0378468,46.9972321 88.9278735,47.3157885 90.161315,47.5096953 L93.0626911,47.966759 C96.0902292,48.4376755 98.3328164,49.3587189 99.7905199,50.7299169 C101.248223,52.1011149 101.977064,54.0470788 101.977064,56.567867 C101.977064,57.9529155 101.724773,59.227141 101.220183,60.3905817 C100.715594,61.5540224 99.9797449,62.5512424 99.0126147,63.3822715 C98.0454845,64.2133006 96.8471019,64.8573384 95.4174312,65.3144044 C93.9877604,65.7714704 92.3618847,66 90.5397554,66 Z M125.356269,65.501385 L123.253823,58.6038781 L113.456422,58.6038781 L111.353976,65.501385 L104.87844,65.501385 L114.549694,36.498615 L122.454893,36.498615 L132,65.501385 L125.356269,65.501385 Z M118.418196,42.232687 L118.207951,42.232687 L114.970183,53.2437673 L121.698012,53.2437673 L118.418196,42.232687 Z"
                id="MFSA" fill="#85ACB0" fill-rule="nonzero"></path>
        </g>
    </g>
</svg>

<svg xmlns="http://www.w3.org/2000/svg" width="154" height="102"><g fill="none" fill-rule="evenodd"><path d="M0 0h154v102H0z"/><path d="M43.95 46.47h-.127l-2.144 4.24-5.719 10.262-5.592-10.221-2.229-4.57h-.126V65.5H22V36.5h6.77l7.19 13.587h.084l7.107-13.587h6.812V65.5H43.95v-19.03zm12.488 19.031V36.5h19.469v5.609H62.83v5.942h11.142v5.568H62.83V65.5h-6.392zM90.54 66c-2.58 0-4.766-.436-6.56-1.309-1.794-.872-3.322-2.001-4.583-3.386l4.205-4.197c1.99 2.216 4.443 3.324 7.358 3.324 1.57 0 2.733-.318 3.49-.956.757-.637 1.136-1.482 1.136-2.534 0-.803-.225-1.475-.673-2.015-.449-.54-1.36-.908-2.733-1.102l-2.902-.373c-3.111-.388-5.389-1.316-6.833-2.784-1.443-1.469-2.165-3.421-2.165-5.86 0-1.301.252-2.492.757-3.573a7.922 7.922 0 012.165-2.783c.94-.776 2.089-1.379 3.448-1.808 1.36-.43 2.909-.644 4.647-.644 2.214 0 4.162.346 5.844 1.039a11.868 11.868 0 014.331 3.033l-4.246 4.238a8.5 8.5 0 00-2.544-1.973c-.996-.513-2.25-.77-3.764-.77-1.43 0-2.495.25-3.196.749-.7.498-1.05 1.19-1.05 2.077 0 .998.273 1.718.82 2.161.546.443 1.436.762 2.67.956l2.9.457c3.028.47 5.27 1.392 6.729 2.763 1.457 1.371 2.186 3.317 2.186 5.838 0 1.385-.252 2.66-.757 3.823a8.197 8.197 0 01-2.207 2.991c-.968.831-2.166 1.475-3.596 1.932-1.43.457-3.055.686-4.877.686zm34.816-.499l-2.102-6.897h-9.798l-2.102 6.897h-6.476L114.55 36.5h7.905L132 65.5h-6.644zm-6.938-23.268h-.21l-3.238 11.01h6.728l-3.28-11.01z" fill="#85ACB0" fill-rule="nonzero"/></g></svg>
